X:111
T:Johnny Dennehy's                                                                                  
M:6/8                                                                                               
L:1/8                                                                                               
D:Jackie Daly, "Many's a Wild Night", track 2(c)                                                    
K:A                                                                                                 
E |A2 B cBc | Ace a2 f | ecA BAF | BcB BAF |                                                        
A2 B cBc | Ace a2 f | ecA BAB |1 cAA A2 E:|2 cAA A2 f||                                             
| ece  a2 f | ece a2 f | ecA BAF | BcB BAF |                                                        
A2 B cBc | Ace a2 f | ecA BAB |1 cAA A2 f :|2 cAA A2 E |>|
